assets/icons/librescoot-internet-cloud-disconnected.svg

<svg width="144" height="144" viewBox="0 0 144 144" fill="none" xmlns="http://www.w3.org/2000/svg">
    <g clip-path="url(#clip0_400_470)">
        <g>
            <path d="M122.7 135.601L105.45 118.351H37.2C28.4 118.351 21 115.401 15 109.501C9 103.601 6 96.2508 6 87.4508C6 79.4508 8.525 72.7508 13.575 67.3508C18.625 61.9508 24.95 58.6508 32.55 57.4508C32.75 56.0508 33.075 54.4758 33.525 52.7258C33.975 50.9758 34.6 49.4008 35.4 48.0008L10.5 23.1008L16.8 16.8008L129.15 129.151L122.7 135.601ZM37.2 109.351H96.75L42.75 55.3508C41.65 56.8508 40.925 58.5508 40.575 60.4508C40.225 62.3508 40.05 64.2008 40.05 66.0008H37.2C31 66.0008 25.75 67.9758 21.45 71.9258C17.15 75.8758 15 80.9258 15 87.0758C15 93.2258 17.15 98.4758 21.45 102.826C25.75 107.176 31 109.351 37.2 109.351ZM128.1 113.701L121.05 106.651C123.55 104.951 125.5 103.051 126.9 100.951C128.3 98.8508 129 96.3508 129 93.4508C129 89.1508 127.45 85.4758 124.35 82.4258C121.25 79.3758 117.55 77.8508 113.25 77.8508H103.2V65.7008C103.2 56.9008 100.15 49.5258 94.05 43.5758C87.95 37.6258 80.5235 34.6508 71.7705 34.6508C68.9235 34.6508 65.875 35.1008 62.625 36.0008C59.375 36.9008 56.4 38.3508 53.7 40.3508L47.4 34.0508C51 31.1508 54.875 29.0258 59.025 27.6758C63.175 26.3258 67.4 25.6508 71.7 25.6508C82.8 25.6508 92.325 29.6008 100.275 37.5008C108.225 45.4008 112.2 54.9008 112.2 66.0008V69.1508C119.4 69.0508 125.5 71.3008 130.5 75.9008C135.5 80.5008 138 86.3508 138 93.4508C138 96.9508 137.175 100.626 135.525 104.476C133.875 108.326 131.4 111.401 128.1 113.701Z" fill="white"/>
        </g>
    </g>
    <defs>
        <clipPath id="clip0_400_470">
            <rect width="144" height="144" fill="white"/>
        </clipPath>
    </defs>
</svg>

<svg xmlns="http://www.w3.org/2000/svg" width="144" height="144" fill="none" viewBox="0 0 144 144"><g clip-path="url(#a)"><path fill="#fff" d="m122.7 135.601-17.25-17.25H37.2q-13.2 0-22.2-8.85T6 87.4508q0-12 7.575-20.1t18.975-9.9q.3-2.1.975-4.725t1.875-4.725l-24.9-24.9 6.3-6.3L129.15 129.151zm-85.5-26.25h59.55l-54-54.0002q-1.65 2.25-2.175 5.1t-.525 5.55H37.2q-9.3 0-15.75 5.925T15 87.0758t6.45 15.7502q6.45 6.525 15.75 6.525m90.9 4.35-7.05-7.05q3.75-2.55 5.85-5.7 2.1-3.1502 2.1-7.5002 0-6.45-4.65-11.025t-11.1-4.575H103.2v-12.15q0-13.2-9.15-22.125t-22.2795-8.925q-4.2705 0-9.1455 1.35t-8.925 4.35l-6.3-6.3q5.4-4.35 11.625-6.375t12.675-2.025q16.65 0 28.575 11.85t11.925 28.5v3.15q10.8-.15 18.3 6.75t7.5 17.55q0 5.2501-2.475 11.0252t-7.425 9.225"/></g><defs><clipPath id="a"><path fill="#fff" d="M0 0h144v144H0z"/></clipPath></defs></svg>
